X:1
T:Mouth of the Tobique (3 parts)
Z:Gregory R. Taylor" <taylgr:shasta.csuchico.edu> irtrad-l 2000-09-01
M:4/4
L:1/8
K:G
(3DEF|GF GA (3Bcd ed|Bd BA GB AG|\
AB AF DF AF|1 GA Bc d2 (3DEF:|2 GB AF G2 ef||
gf ga gd Bg|fd Ad f2 gf|ed cB AG FD|1 GA Bc d2 ef:|2 GB AF G2 z (3D/E/F/||
G [BG] z [c2G2] z [B2G2]| z2 [c2G2] z [B2G2] z| FG AB cA FD|GA Bc d2 (3DEF|
G [BG] z [c2G2] z [B2G2]| z2 [c2G2] z [B2G2] z| FG AB cA FD|GB AF G2 (3DEF :|
